X:1
T:Piano Sonata No. 29
T:Piano Sonata No. 29, Op. 106
T:1st Movement
T:Ludwig van Beethoven
C:Ludwig van Beethoven
%%score { ( 1 3 5 6 ) | ( 2 4 ) }
L:1/8
Q:1/4=260
M:2/2
K:Bb
V:1 treble nm="Piano" snm="Pno."
V:3 treble 
V:5 treble 
V:6 treble 
V:2 bass 
V:4 bass 
V:1
"^Allegro"!ff! z | z2 z .[dfbd'] .[dfbd']2 .[dfbe'].[dfbd'] | .[dfbd']2 [Bdfb]2 z4 | %3
 z2 z .[fbd'f'] .[fbd'f']2 .[fbd'g'].[fbd'f'] | %4
 .[fbd'f']2 .[dfbd']2[Q:1/4=30] !fermata!z2[Q:1/4=210]!p! Bc | d4 c2!mp! cd | e4 d2!mf! de | %7
 f3 g!mp! f e2 f | e[Q:1/4=140]"_ritard"!p!dfe[Q:1/4=30] !fermata!c2[Q:1/4=210] bc' | %9
 d'4 c'2 c'd' | e'4 d'2 d'e' |!<(! f'3 g' f' e'2 f' | e' d'2 e' d'c'd'e' | g'f'g'f' f'e'f'e' | %14
 e'd'e'd' d'c'd'e' | g'f' z g' g' _a'2 =a'!<)! |!f! c''b'a'g' .[bd'f']2 .[ac'f'a']2 | %17
 [bd'f'b']4 [Bdb]4 |!p! .[dfd']2 .[Bdb]2 .[dfd']2 .[cec']2 |!f! [ege']4 [cec']4 | %20
!p! .[ege']2 .[^c=e^c']2 .[_e_g_e']2 .[dfd']2 |!f! [f_af']4 [dfd']4 | %22
!p! .[f_af']2 .[d^fd']2 .[=f_a=f']2 .[e=ge']2 |!f! [gbg']4 [egbe']4 | %24
!p! .[gbg']2 .[=eb=e']2!<(! .[_gb_g']2 .[fbf']2 | .[_ab_a']2 .[^fb^f']2 .[aba']2 .[=gb=g']2 | %26
!8va(! .[b_e'g'b']2 .[^g^g']2 .[bb']2!<)!!f! .[=a=a']2 | %27
 .[c'c'']2!f! .[bb']2!8va)! .[=g=g']2!f! .[ff']2 | .[ee']2!f! .[dd']2 .[cc']2!f! .[Bb]2 | %29
 [Gg]2!f! [Ff]2 [Ee]2!f! [Dd]2 | [Cc]2!f! [B,B]2 [G,G]2!f! [F,F]2 | A2!>(! F2 c2 F2 | %32
 f2 F2!>)!!p! a2 F2 |[Q:1/4=180]"_ritardando" c'2 F2[Q:1/4=150] f'2 F2 | %34
!pp![Q:1/4=130] f'2 F2[Q:1/4=100] f'2[Q:1/4=260]"^a tempo" z2!f! | %35
 z2 z .[dfbd'] .[dfbd']2 .[dfbe'].[dfbd'] | .[dfbd']2 .[Bdfb]2 z4 | %37
 z2 z [dfbd'] [dd']2 [d^fad'][dfad'] | [d^fad']2 [dfad']2[Q:1/4=40] !fermata!z2 z!p![Q:1/4=210] z | %39
 z2 [^FAd]2 z2 [FAd]2 | z2 [^FAd]2 z2 [FAd]2 | z2!<(! [Acd^f]2 z2 [Acdf]2 | %42
 z2 [Ac^fa]2 z2 [cfac']2 | z2 [^fac'^f']2 z2 [ac'a']2 | z2!8va(! [c'a'c'']2 z2 [c'^f'a'c'']2!<)! || %45
[K:G]!ff! [c'f'a'c'']2!8va)!!>(! [ac'][^g=b] [ac']2 [FA][=G_B] | %46
 [FA]2 [ac'][^g=b] [ac']2 f'a'!>)! |!p!!8va(! c''!<(!d''c''b' c''d''e''c'' | %48
 a'b'!<)!!f!c''a'!>(! f'=g'a'f'!8va)!!>)! |!p! c'd'e'c' abc'a | %50
[Q:1/4=160] fgaf[Q:1/4=100] [Acd]2 z2[Q:1/4=210] |!8va(!!<(! b'c''b'a' b'c''d''b' | %52
 g'a'b'!<)!!f!g'!8va)!!>(! d'f'g'd'!>)! |!p! bc'd'b gabg | dfgB[Q:1/4=160] GABG | %55
[Q:1/4=100] [DFA]2!<(! e'd' e'd'c'e'[Q:1/4=210] | c'ba!<)!!f!c'!>(! agfa!>)! |!p! edce cBAc | %58
 AGFA[Q:1/4=160] cBAc |!p![Q:1/4=100] [DG]2!8va(!!<(! d''c'' d''c''b'd''[Q:1/4=210] | %60
 b'a'g'!<)!!f!b'!8va)!!>(! bagb!>)! |!p! dcBd bagb |!<(! d'c'b!<)!!f!d'!>(! e'2 [ad'f']2!>)! | %63
!p! [gd'g']2 z2 z4 | z2 [FA]2 [GB] z [bg'][af'] | %65
[Q:1/4=190]"_poco ritard" [bg']2 [gbe']2[Q:1/4=170] [fad']2 [eg^c']2 | %66
[Q:1/4=150] [ge']2 [fd']2[Q:1/4=130] [fd']2[Q:1/4=210]"^a tempo" [gd'][a=c'] | b2 g'2 e' z c'a | %68
 f2 d'2 b z g'f' |[Q:1/4=180]"_poco ritard" g'2 e'2[Q:1/4=160] c'2 [fb]2 | %70
[Q:1/4=210]"^a tempo" b6 e'2 | a6 d'2 | g6 ^c'2 | ^f6 b2 | =f e2 a _e d2 g |!<(! dd'^c'=c' a^f_ed | %76
 ^c=cA!<)!!f!F !>!G2 !>!=ed |!p! d!<(!d'^c'=c' af_ed | ^c=cA!<)!!f!F !>!G2 !>!=ed | dgba g4- | %80
 g4 f2 x2 |!p!!8va(! d'!<(!d''^c''=c'' a'f'_e'd'!8va)! | ^c'=c'a!<)!!f!f !>!g2 !>!=e'd' | %83
!p!!8va(! d'!<(!d''^c''=c'' a'f'_e'd'!8va)! | ^c'=c'a!<)!!f!f !>!g2 !>!=e'd' | d'gba g4- | %86
!>(! g4 f2 g2!>)! |!p! g!<(!c'e'd' c'4 | c'4 b2 c'2 | c'=f'a'g' f'4- | f'4 e'4- | %91
 [c'e']2!<)!!ff! [egc'e']2 [bd']2 [c'e'][d'=f'] | .[e'g']2 .[c'e']2 z4 | %93
 z2 [egc'e']2!ff! [bd']2 [c'e'][d'=f'] | [e'g']2 [gae'g']2 z2 [g^c'e'g']2 | %95
 z2 [gbd'g']2 z2 [ga^c'g']2 | [gbd'g']4!f! [gbd']4 | [gbd']2 [dgb]2!mf! d!<(!^fgb | %98
 ^c'd'e'd' f'g'a'g' |!8va(! ^a'b'=c''b'!<)! !>!d''2!8va)!!p! [dac']2 | [dgb]8 | c'4 [c'_e']4 | %102
 [gg']8 | [c'e']4 c'4 | _b4 =b4 | d'4 [ac']3 [fa] |!p!!<(! b8 | c'4 =e'4 | g'8 | e'4 c'4 | %110
 _b2 =b4 d'2 | Td'4- d'2- d' ^c'/d'/!<)! | %112
!ff!!8va(! [d'=f'b'd'']2 [d'f'b'd'']4!ff! .[=c'd'f'=c'']2 | %113
 .[bd'=f'b']2 .[c'd'f'c'']2 .[d'f'd'']2!p! .[bd'e'b']2 | %114
 .[c'e'c'']2 .[bd'e'b']2 .[c'e'c'']2!8va)! .[ac'e'a']2 | %115
 .[ae'g']2 .[a^c'g']2 .[a=c'^f']2 .[ac'a']2 |!<(! .[gbg']2 .[dbd']2 .[fc'f']2 .[ac'f'a']2 | %117
 [gbg']2 [dbd']2 [fc'f']2 [ac'f'a']2!<)! |!f! gg'dd' f!f!f'aa' | g!f!g'dd' f!f!f'aa' |1 %120
!ff! [gg']2 z2 [aa']2 z2 | [_b_b']4- [bb']3 z | z8 | z4 z2 z _B, | _B3!p! B B2 z2 | z8 :|2 %126
!8va(! [gg']2 z2 [aa']2 z2 ||!ff![Q:1/4=96] !fermata![bb']8 |[Q:1/4=210] [bb']2 z2 [c'c'']2 z2 | %129
!ff![Q:1/4=96] !fermata![d'd'']8!8va)! |!pp![Q:1/4=210] [dgd']2 [dgd']4 .[egc']2 | %131
 .[=fgb]2 .[_egc']2 .[dgd']2 .[fgb]2 | .[_eg_e']2 [ege']4 .[d=fgd']2 | %133
 .[_egc']2 .[d=fgd']2 .[eg_e']2 .[egc']2 | .[=f_a=f']2!<(! [faf']4 .[_eg_e']2 | %135
 .[d=fd']2 .[_eg_e']2 .[f_a=f']2!<)!!f! .[df_bd']2 ||[K:Eb] [ge'g']2 z2 [gd'f']2 z2 | %137
 !fermata![ge'g']8[Q:1/4=80] |[Q:1/4=210]!p! [EG]2 z2 [FA]2 z2 | %139
 [GB]4-[Q:1/4=80] !fermata![GB]3[Q:1/4=210] z | z8 | z4 z2 z[K:bass]!f! E, | E3!p! E E2 z2 | %143
 z4 z2 z!p! B,, | E,3 E, E,2 F,E, | E,2 C,2 (C,4 | .A,2) A,G, F,2 F,E, | D,2 z2 (D,4 | %148
 .B,2) B,A, G,2 G,F, | =E,2 z2 (E,4 |!<(! .C2) CB, A,2 A,G, | F,2 F,G, A,2 A,B, | %152
 G,2 G,F, E,2 z[K:treble] F | B3 B B2 cB | B2 G2 (G4 | .e2) ed c2 cB | =A2 z2 (A4 | .f2) fe d2 dc | %158
 =B2 z2 (B4 | .g2) gf e2 ed | c2 c_B _A2 AG | F2 FG A2 B2!<)! |!f! B2 z2 z2 z B | e3 e e2 fe | %164
 e2 c2 (c4 | .a2) ag f2 fe | d2 z2 (d4 | b2) ba g2 gf | =e2!>(! =E2 F2 G2!>)! |!p! A6 =A2 | %170
 B2!<(! gf e2 ed | c6 ^c2 | d2 ed =c2 =BG!<)! |!f! [ce]3 [ce] [ce]2 [df][ce] | [ce]2 [Ac]2 [Ac]4 | %175
 [fa]2 [fa][eg] [_df]2 [df][ce] | [B_d]2 z2 [Bd]4 | [gb]2 [gb][fa] [=eg]2 [eg][=df] | %178
 [c=e]2 z2 [cf]4 | [ac']2 [ac'][gb] .[fa]2 [gb][fa] | .[eg]2 [af'][ge'] .[fd']2 [ge'][fd'] | %181
 .[ec']2 [gb][ac'] .[b_d']2 [fa][gb] | .[ac']2 ef g2 z [=B=d] |!ff! [g=b]4- [gb]3 [=Bd] | %184
 [g=b]4- [gb]2!p! e'd' | g'f' z2 gf z2 | GF z2 gf z2 |!ff! [gc'e']4- [gc'e']3 [eg]- | %188
 [egc'e']4- [egc'e']2!p! f'e' | a'g' z2 ag z2 | AG z2 ag z2 |!ff! [fd'f']4- [fd'f']3 [df] | %192
 [d'f']4- [d'f']2!p! g'f' | b'a' z2!<(! ba z2 | BA z2 ba z2!<)! |!ff! [e'g']4- [e'g']3 [gb] | %196
 [e'g']4- [e'g']2 z [^f=a] | [^f'=a']4-!ff! [f'a']3 [^f=a] | [^f'=a']4- [f'a']3 [^g=b] || %199
[K:C]!8va(! [bd'=f'^g'b']4- [bd'f'g'b']3 [^gb] | [bd'f'^g'b']4- [bd'f'g'b']3 [e=g_b^c'] | %201
 [e'=g'_b'^c'']4- [e'g'b'c'']3 [eg_b^c'] | [e'g'_b'^c'']4- [e'g'b'c'']3 [^fad'] | %203
 [d'^f'a'd'']3 d' d''3!8va)! d |!>(! d'3 d d'3 d | %205
[Q:1/4=190]"_poco ritard" d'3 d[Q:1/4=170] d'3 d |[Q:1/4=150] d'3 d[Q:1/4=130] d'3 ^d!>)! || %207
[K:D]!p![Q:1/4=210]"^a tempo" ^d'8 | e'4 g4 | b8 | [eg]4 e4 | =d4 ^d4 | f4 e2 c2 | ^d2 =D2 ^D4 | %214
 F4 E2 C2 | [B^d]ed^^c def^e | gf^ef =e^de^c | ^d2 z2 z4 | z8 | [CE]2 z2 z4 ||[K:B] z4 z2 z!p! F | %221
 c3 c c2 dc | c2 A2 z4 | z4 z2 z!p! F | e3 e e2 z2 | z4 z2 z c | a3 a a2 z2 | A2 z E, C4- | %228
 C3 =G, E4- | E=G, E3 =g e'2- | e' ^G, E3 ^g e'2- | e' A, E3 a e'2- | e' A, =F3 a =f'2 || %233
[K:Bb]!ff![Q:1/4=240] [dfbd']3 .[dfbd'] .[dfbd']2 .[dfbe'].[dfbd'] | .[dfbd']2 .[Bdfb]2 z2 z [df] | %235
 [fbf']3 .[fbd'f'] .[fbd'f']2 .[fbd'g'].[fbd'f'] | %236
 .[fbd'f']2 .[dfbd']2[Q:1/4=210] z2!p! [gb][ac'] | [fbd']4 [fac']2!mp! [Ac][=Bd] | %238
 [Gce]4 [G_Bd]2!mf! de | f3 g!mp! f e2 f | %240
!p![Q:1/4=140]"_ritard" ed[F_Adf][EGce][Q:1/4=30] !fermata![C=Ac]2[Q:1/4=210]"^a tempo" de | %241
 f3 g e3 f | edfe c2 ef | g3 _a f3 g | fegf d2 f_g | _a3 b _g2 ga | b3 _c' _a2 bc' | %247
!<(! _d'3 e' d' _c'2 d' | _c' b2 c' b_abc' | e'_d'e'd' d'_c'd'c' | _c'bc'b b_aba | %251
 _e'_d'_dd' d'_c'_cc' | _c'bBb b_abc' | _e' _d'2 __e'- e'_e'=e'f'!<)! | %254
!f! _a'_g'f'e' _d'2 [d'f']2 |!f! [_gb_d'_g']4 [B,_D_G]4 | %256
!p! .[_D_GB]2 .[B,DG]2 .[DGB]2 .[_C=DF_A]2 |!f! [_a_c'=d'f'_a']4 [_C=DF_A]4 | %258
!p! .[DF_A_c]2 .[_CDFA]2 .[DFAc]2 .[_D_F=GB]2 |!f! [b_d'_f'b']4 [_D_F=GB]4 | %260
!p! .[_FGB_d]2 .[_DFGB]2 .[FGBd]2 .[__E_G_c]2 |!f!!8va(! [_c'__e'_g'_c'']4!8va)! [__E_G_c]4 | %262
!p! .[=F_A_c=d]2 .[=DFAc]2 .[FAcd]2 .[_F=GB_d]2 | .[GB_d_f]2 .[_FGBd]2 .[GBdf]2 .[_G_c__e]2 | %264
 .[_G_c__e_g]2 .[Gce]2 .[Gceg]2!f! .[_Ac_d=f]2 | .[_a_a']2 .[_g_g']2 .[_e_e']2 .[_d_d']2 | %266
 .[_c_c']2 .[Bb]2 .[_A_a]2 .[_G_g]2 | .[Ee]2 .[_D_d]2 .[_C_c]2 .[B,B]2 | %268
 [_A,_A]2 [_G,_G]2[K:bass] [E,E]2!f! [_D,_D]2 |[K:treble] F2!>(! _D2 _A2 D2 | %270
 _d2 _D2 f2[Q:1/4=180]"_ritardando" D2 | _a2[Q:1/4=150] _D2 _d'2[Q:1/4=130] D2 | %272
 _d'2[Q:1/4=100] _D2!>)!!pp![Q:1/4=40] !fermata!^c'3[Q:1/4=240]"^a tempo" z || %273
[K:D] z2 z [dfbd'] .[dfbd']2 .[dfbe'].[dfbd'] | %274
 .[dfbd']2 .[Bdfb]2[Q:1/4=40] !fermata!z2 z[Q:1/4=210]!pp! z | z2 [dfbd']2 z2 [dfbd']2 | %276
 z2 [dgbd']2 z2 [dgbd']2 | z2 [dgbd']2 z2 [dgbd']2 | z2!<(! [_eg=c'_e']2 z2 [egc'e']2 || %279
[K:Bb] z2 [egc'e']2 z2 [egc'e']2 | z2 [eac'e']2 z2 [eac'e']2 | z2 [eac'e']2 z2 [ac'e'a']2 | %282
 z2!8va(! [c'e'a'c'']2 z2!<)!!f! [e'a'c''e'']2 | %283
!>(! [e'a'c''e'']2!8va)! [c'e'][=bd'] [c'e']2 [Ac][_B_d] | [Ac]2 [ce][=B=d] [ce]2 ac'!>)! | %285
!p! e'!<(!f'e'd' e'f'g'e' | c'd'e'!<)!!f!c'!>(! a_bc'a!>)! |!p! efge cdec | %288
[Q:1/4=160] ABcA[Q:1/4=100] [CEF]2 z2[Q:1/4=210] |!<(! d'e'd'c' d'e'f'd' | %290
 c'd'e'!<)!!f!b!>(! fabf!>)! |!p! defd BcdB | FABD[Q:1/4=160] Bcd[Q:1/4=100]B | %293
 [FAc]2!<(! g'f' g'f'e'g'[Q:1/4=210] | e'd'c'!<)!!f!e'!>(! c'bac'!>)! |!p! _gfeg edce | %296
 cBAc[Q:1/4=160] edce |[Q:1/4=100] [FB]2[Q:1/4=210]!<(! f'e' f'e'd'f' | %298
 d'c'b!<)!!f!d'!>(! fedf!>)! |!p! bgfb fedf |!<(! d'c'b!<)!!mf!d'!>(! e'c'd'e'!>)! | %301
!p! [ff']2 z2 z4 | z2 [Ac]2 [Bd]2 b'a' |[Q:1/4=180]"_poco ritard" b'2 [gbg']2 [faf']2 [=eg=e']2 | %304
[Q:1/4=160] [gbg']2 [faf']2[Q:1/4=100] [af']2[Q:1/4=210]"^a tempo" f_e | d2 b2 g z e'c' | %306
 a2 f'2 d' z ba |[Q:1/4=180]"_poco ritard" b2 [gg']2[Q:1/4=160] [ege']2 [dad']2 | %308
[Q:1/4=100] d'6[Q:1/4=210] g'2 | c'6 f'2 | b6 =e'2 | a6 d'2 | _a g2 c' _g f2 b | %313
 f!<(!f'=e'_e' c'=a_gf | =e_ecA!<)!!f! B2 =gf |!p! f!<(!f'=e'_e' c'a_gf | =e_ecA!<)!!f! B2 =gf | %317
!>(! fbd'c' b4- | b4 a2 =f2!>)! |!8va(!!<(! f'f''=e''_e'' c''a'_g'f'!8va)! | %320
 =e'_e'c'a!<)!!f! b2 =g'f' |!p! z!<(! f'=e'_e' c'a_gf | =e_ecA!<)!!f! B2 =gf |!>(! fbd'c' b4- | %324
 b4 a2 b2!>)! |!p! b!<(!e'g'f' e'4 | e'4 d'2 e'2 | e'2 _a'2 a'4- | a'4 =g'4- | %329
 g'2!<)!!ff! [gbe'g']2 [d'f']2 [e'g'][f'_a'] | .[g'b']2 .[e'g']2 z4 | %331
 z2 [gbe'g']2 [d'f']2 [e'g'][f'_a'] | [g'b']2 [Bcgb]2 z2 [B=egb]2 | z2 [Bdfb]2 z2 [Bc=eb]2 | %334
!ff! [Bdfb]4 [df]4- | [df]2 d z!<(! fabd' | =e'f'g'f'!8va(! a'b'c''b' | %337
 ^c''d''_e''d''!<)! f''2!8va)!!p! [=c_e]2 | z4 d'4 | e'4 _g'4 | b8- | b2 _g'2 e'4 | %342
 [_d_d']4 [=d=d']4 | [ff']4 [ee']3 [cc'] |!<(! [dd']8 | [ee']4 [=g=g']4 | b'8 | [gg']4 [ee']4 | %348
 [_d_d']2 [=d=d']4 [ff']2 | f'4- f'e'c'f'!<)! |!ff! [f_ad'f']2!8va(! [f'_a'd''f'']4 .[e'f'a'e'']2 | %351
 .[d'f'_a'd'']2 .[e'f'a'e'']2 .[f'a'f'']2!p! .[d'f'g'd'']2 | %352
 .[e'g'e'']2 .[d'f'g'd'']2 .[e'g'e'']2 .[c'g'c'']2 | %353
 .[c'g'b']2 .[c'=e'b']2 .[c'_e'=a']2 .[c'e'c'']2 |!<(! [bd'b']2 [fd'f']2 [ae'f'a']2 [c'e'f'c'']2 | %355
 [bd'f'b']2 [fd'f']2 [ae'f'a']2 [c'e'f'c'']2!<)! |!f! bb'ff' a!f!a'c'c'' | %357
!f! bb'ff'!8va)! A!f!acc' | B!f!bFf =B!f!=bdd' | c!f!c'Gg =B!f!=bdd' | c!f!c'Gg c!f!c'ee' | %361
 d!f!d'Aa ^c!f!^c'=e=e' | d!f!d'Aa d!f!d'ff' | _e!f!_e'Bb d!f!d'ff' | e!f!e'Bb e!f!e'_g_g' | %365
 f!f!f'cc' e!f!e'_g_g' | _d!f!_d'Aa c!f!c'ee' | _G!f!_gFf A!f!aee' |!p! =d8 | e4 _g4 | b8 | %371
 _g4 e4 |!p! d8 | e6 =g2 |!<(! b6 _a2 | g2 f2 e2!<)!!mf! d2 |!>(! e6 d2 | f2 e4 d2!>)! | %378
[Q:1/4=105]!pp! !fermata!Td4- d2- d!p! d/c/ |[Q:1/4=210] dedc B=ABc | defg abc'd' | %381
 e'f'e'd' c'bag | fedc BAGF |!pp! [Fd]3 [Fd] [Fd]2 z!f! [DFG] | [EGe]3 [EGe] [EGe]2 z!pp! [FG] | %385
 [Ge]3 [Ge] [Ge]2 z!f! [=EGA] | [FAf]3 [FAf] [FAf]2 z!pp! [GA] | [Af]3 [Af] [Af]2 z!f! [F_AB] | %388
 [GBg]3 [GBg] [GBg]2 z z | z4 z2 z!ff! [Ge] | [=Ace=a]3 [Acea] [Acea]2 z2 | z8 | %392
 z2 z!p! .[dfbd'] .[dfbd']2 .[dfbe'].[dfbd'] | .[dfbd']2 .[Bdfb]2!f! .[DFBd]2 .[B,DFB]2 | %394
!p! [fbd'f']3 [fbd'f'] .[fbd'f']2 .[fbd'g'].[fbd'f'] | .[fbd'f']2 .[dfbd']2!f! .[FBdf]2 .[DFBd]2 | %396
!p! .[d'f']2 .[bd']2!f! .[df]2 .[Bd]2 |!p! .[bd']2 .[fb]2!f! .[Bd]2 .[FB]2 | %398
!p! .[fb]2 .[df]2!f! .[FB]2 .[DF]2 |!p! [Ae]8 |!p! .[df]2 .[Bd]2!f! .[DF]2 .[B,D]2 | %401
!p! .[Bd]2 .[GB]2!f! .[B,D]2 .[F,B,]2 |!p! .[FB]2 .[DF]2[K:bass]!f! .[F,B,]2 .[D,F,]2 | %403
[K:treble]!p! [A,E]8 | z2 z!>(! [A,E_G] .[A,EG]2 .[B,DF]2 | z2 z [_G,A,CE] .[G,A,CE]2 .[F,B,D]2 | %406
 z2 z [_G,A,CE] .[G,A,CE]2 .[F,B,D]2 | z2 z[K:bass] [E,_G,A,C] .[E,G,A,C]2 .[D,F,B,]2 | %408
 z2 z [D,F,B,D]!>)!!pp! .[D,F,B,D]2 .[D,F,B,]2 | z2!ppp! .[D,F,B,D]2 z4 | %410
 z4[K:treble]!ff! [bd'f'b']2 z2 |[Q:1/4=80] !fermata![B,B]8 |] %412
V:2
!ped! B,,, | [F,B,D]3 .[F,B,D] .[F,B,D]2 .[F,B,D].[F,B,D] | %2
 .[F,B,D]2 [D,F,B,]2 z2!ped-up! z!ped! B,,, | [F,B,DF]3 .[F,B,DF] .[F,B,DF]2 .[F,B,DF].[F,B,DF] | %4
 .[F,B,DF]2 [F,B,D]2!ped-up! !fermata!z2 z2 | z2 =E2 F2 =B,2 | C2 ^F,2 G,2 _E,2 | %7
 D,2 _D,2 C,2 =F,,2 | B,,2 E,,2 !fermata!F,,2 z2 | z2[K:treble] =e2 f2 =B2 | c2 ^F2 G2 _E2 | %11
"^crescendo poco a poco" D2 _D2 C2[K:bass] =F,2 | B,2 _G,2 F,2 E,2 | D,2 _D,2 C,2 !>!F,,2 | %14
 B,,2 _G,,2 !>!F,,2 E,,2 | D,,2 _D,,2 C,,2 ^F,,,2 | G,,,2 E,,2 !>!=F,,2 !>![F,,,F,,]2 | %17
!f!!ped! [B,,,B,,] [F,B,D][F,B,D][F,B,D] z [D,F,B,][D,F,B,][D,F,B,]!ped-up! | %18
 z [F,B,D]z[D,B,] z [F,B,D]z[E,B,C] | %19
!ped! [B,,,B,,] [G,B,E][G,B,E][G,B,E] z [E,B,C][E,B,C][E,B,C]!ped-up! | %20
 z [G,B,E]z[=E,B,^C] z [_G,B,_E]z[F,B,D] | %21
!ped! [B,,,B,,] [_A,B,F][A,B,F][A,B,F] z [F,B,D][F,B,D][F,B,D]!ped-up! | %22
 z [_A,B,F]z[^F,B,D] z [A,B,=F]z[=G,B,E] | %23
!ped! [B,,,B,,] [B,EG][B,EG][B,EG] z [G,B,E][G,B,E][G,B,E]!ped-up! | %24
 z[K:treble] [B,EG]z[B,^C=E]"^cresc." z [B,_E_G]z[B,DF] | z [B,F_A]z[B,D^F] z [B,=FA]z[B,E=G] | %26
 z [B,CEG] z [B,CE^G] z [B,CEB] z [B,CE=A] | z [Cc] z [B,B] z[K:bass] [=G,=G] z [F,F] | %28
 z [E,E] z [D,D] z [C,C] z [B,,B,] | z [G,,G,] z !>![F,,F,] z [E,,E,] z [D,,D,] | %30
 z [C,,C,] z [B,,,B,,] z [G,,,G,,] z !>![F,,,F,,] |!ped! z A,,,"^dimin."zF,,, z C,,zF,,, | %32
 z F,,zF,,, z A,,zF,,, | z C,zF,,, z F,zF,,, | z F,zF,,, z F,!ped-up!z!ped!B,,, | %35
 [F,B,D]3 .[F,B,D] .[F,B,D]2 .[F,B,D].[F,B,D] | .[F,B,D]2 .[D,F,B,]2 z2!ped-up! z B,,, | %37
 [D,F,B,D]3 [D,F,B,D] [D,D]2 [D,^F,A,D][D,F,A,D] | [D,^F,A,D]2 [D,F,A,D]2 !fermata!z2 z D, | %39
 D3 D, D3 D, | D3 D, D3 D, | [A,C]3"^crescendo" D, [A,C]3 D, | [^F,A,]3 D, A,,3 D, | %43
 A,,3 D, G,,3 D, | !>!^F,,3 D, _E,,3 D, ||[K:G]"^dimin." [D,,D,]2[K:treble] _ed e2 d^c | %46
 d2 _ED E2 D^C | D2[K:bass]"^cresc." z D, F,2 z A, | =C2 z[K:treble] F A2 cA | abc'a cdec | %50
 ABcA FGAF |"^cresc." [DGB]2 z[K:bass] D, G,2 z B, | D2 z[K:treble] G B2 z d | gabg BcdB | %54
 GABG BcdB | cd"^cresc."cB cdec | ABcA FGAF |[K:bass] CDEC A,B,CA, | F,G,A,F,[K:treble] AGFA | %59
 Bc"^cresc."BA BcdB | GABG DFGD |[K:bass] B,CDB, G,A,B,G, |"^cresc." D,F,G,D, C,G,D,C, | %63
 B,,2 G,2 E, z CA, | F,2 D2 B, z[K:treble] [G,E]2 | E2 E2 F2 GA | A2 B>^c d2 ef | %67
 g2 [Bd]2 [=ce] z Ac | d2 [FA]2 [GB] z z2 | [EGB]2 [EGc]2 [Ec]2 [^DFB]2 | %70
 [^DFB]2 [B,D]2 [EG]2 [=D=F][^CE] | [^CE]2 [A,C]2 [D=F]2 [=C_E][B,D] | %72
[K:bass] [B,D]2 [G,B,]2 [C=E]2 [B,^D][^A,^C] | [^A,^C]2 [^F,A,]2 [B,=D]2 [=A,C][^G,B,] | %74
 B,2 E2 A,2 B,2 |!ped! [A,,D,C]8- | [A,,D,C]4!ped-up! [B,,D,B,]4 |!ped! [A,,D,C]8- | %78
 [A,,D,C]4!ped-up! [B,,D,B,]4 | [B,,,B,,]4 [E,,E,]4 | [^C,,^C,]4 [D,,D,]2 z2 | %81
[K:treble]!ped! [A,D=c]8!ped-up! |!ped! [A,Dc]4!ped-up!!ped! [B,DB]4!ped-up! | %83
[K:bass]!ped! [A,,D,C]8- | [A,,D,C]4!ped-up! [B,,D,B,]2[K:treble] B,2 | B,4 E4 | ^C4 D2 _E2 | %87
"^cresc." =E4 A4 | F4 G2 _A2 | =A4 _d4 | =B4 [Cc]4- | [Cc]2[K:bass] [C,,C,]2 z4 | %92
 z2 .[CE]2 [B,D]2!ff! [CE][D=F] | [EG]2 [C,,C,]2 z4 | z2 [^C,,^C,]2 z2 [A,,,A,,]2 | %95
 z2 [D,,D,]2 z2 [E,,E,]2 |!ped! D,,!f!^F,,G,,B,,!ped-up!!ped! D,F,G,B,!ped-up! | %97
[K:treble]!ped! DFGB!ped-up!!ped! z2"^cresc." GB | ^cded fgag | %99
 ^ab=c'b!ped-up! !>!d'2!ped! (3DEF!ped-up! |!ped! (3G,2 B2 G2!ped-up!!ped! (3F2 B2 G2!ped-up! | %101
!ped! (3_E2 c2 G2!ped-up!!ped! (3C2 c2 G2!ped-up! | %102
!ped! (3B,2 B2 G2!ped-up!!ped! (3G,2 B2 G2!ped-up! | %103
!ped! (3C2 c2 G2!ped-up!!ped! (3_E2 c2 G2!ped-up! | %104
!ped! (3D2 _B2 G2!ped-up!!ped! (3D2 =B2 G2!ped-up! | %105
!ped! (3D2 c2 A2!ped-up![K:bass]!ped! (3D,2 D2 C2!ped-up! | %106
!ped! G,,G,B,G,!ped-up!"^crescendo"!<(!!ped! F,G,GG,!ped-up! | %107
!ped! =E,G,GG,!ped-up!!ped! C,G,EG,!ped-up! |!ped! B,,G,DG,!ped-up!!ped! G,,G,B,G,!ped-up! | %109
!ped! C,G,EG,!ped-up!!ped! E,G,GG,!ped-up! |!ped! D,E,F,G,!ped-up!!ped! A,B,A,G,!ped-up! | %111
!ped! F,G,F,E,!ped-up!!ped! D,C,B,,A,,!<)!!ped-up! |!ped! G,,,G,,G,,,G,, G,,,G,,!ped-up!G,,,G,, | %113
 G,,,G,,G,,,G,, G,,,G,,!mp!^G,,,^G,, | A,,,A,,^G,,,^G,, A,,,A,,C,,C, | ^C,,^C,E,,E, D,,D,D,,D, | %116
"^crescendo"!<(! D,,D,=G,,=G, D,,D,D,D | D,,D,G,,G, D,,D,D,D!<)! | G,,G,D,,D, F,,F,A,,A, | %119
 G,,G,D,,D, F,,,F,,A,,,A,, |1 [G,,,G,,]2 z2 [A,,,A,,]2 z2 | %121
!ped! [_B,,,_B,,]4- [B,,,B,,]3!ped-up! B,, | B,3!p! B,!ped! B,2 z2!ped-up! | z4 z2 z D, | %124
 D3 D!ped! D2 z2!ped-up! | z8 :|2 [G,,,G,,]2 z2 [A,,,A,,]2 z2 || !fermata![B,,,B,,]8 | %128
 [B,,,B,,]2 z2 [C,,C,]2 z2 | !fermata![D,,D,]8 |[K:treble]!ped! BGBG BG!ped-up!cG | dGcG BGdG | %132
 cG!ped!cG cG!ped-up!BG | cGBG cGcC | _B_B,"^cresc."!ped![DB]B, [DB]B,!ped-up![_EB]B, | %135
 [=F_B]_B,[_EB]B, [DB]B,[K:bass] _A,,A, || %136
[K:Eb]!ped! G,,!f!G,G,G!ped-up!!ped! F,,!f!F,F,F!ped-up! |!ped! E,,E, !fermata![E,E]6!ped-up! | %138
 z2 G,B, z2 F,A, | z2 [E,G,]2 !fermata![E,G,]3!ff! E, | E3!p! E E2 z2 | z4 z2!ped! z G, | %142
 G3 G G2 z2 | z8!ped-up! | z4 z2 z E,, | A,,3 A,, A,,2 B,,A,, | A,,2 F,,2 F,,4 | %147
 .B,,2 B,,A,, G,,2 G,,F,, | =E,,2 z2 E,,4 | C,2 C,B,, A,,2 A,,G,, |"^cresc." F,,2 z C, F,2 F,_E, | %151
 D,2 D,C, B,,2 C,D, | E,2 G,,2 =A,,2 F,E, |"^più cresc." D,2 z2 z2 B,2 | E,2 z2 z4 | %155
 C,2 C,D, =E,2 F,G, | F,2 z2 F,2 F,_E, | =B,2 z2 B,4 | G,2 z2 G,2 G,F, | C2 C4 x2 | %160
 C2 D,=E, F,2 F,,G,, | A,,2 B,,2 _C,2 B,,B,,, | E,,3 E,, E,,2 F,,E,, | =C,3 C, C,2 D,C, | %164
 C,2 A,,2 A,,4 | F,2 F,E, D,2 D,C, | B,,2 z2 (B,,4 | G,2) G,F, =E,2 E,D, | C,2 x2 C,2 =E,2 | %169
 F,2 C,2 F,2 _E,2 | D,2"^cresc." D,2 G,2 =F,2 | E,2 A,G, F,2 F,E, | D,2 _B,_A, G,2 F,2 | %173
 [C,E,]2 z2 z2 z [C,E,] | [F,A,]3 [F,A,] [F,A,]2!f! [G,B,][F,A,] | [F,A,]2 [_D,F,]2 [D,F,]4 | %176
 [B,_D]2 [B,D][A,C] [G,B,]2!f! [G,B,][F,A,] | [=E,G,]2 z2 [E,G,]4 | %178
 [C=E]2 [C_E][B,_D] [A,C]2!f! [A,C][G,B,] | [F,A,]2 [=D,F,][E,G,] .[F,A,]2 [C,E,][D,F,] | %180
 .[E,G,]2 [=B,,D,][C,E,] .[D,F,]2 [=A,,C,][B,,D,] | .[C,E,]2 [_DF][CE] .[B,D]2 [CE][B,D] | %182
 .[_A,C]2 [A,C]2 [G,=D]2!ped! z2 | z2 z[K:treble] [G=B] [GB]3[K:bass] [G,=B,] | %184
 [G,=B,]3!ff! [G,,=B,,] [G,,B,,]2!ped-up! z2 | z2[K:treble] e'd' z2 ed | z2 ED z2 ed | %187
!ped! [Cc]3 [ce] [ce]3[K:bass] [CE] | [CE]3 [C,E,] [C,E,]2!ped-up! z2 | z2[K:treble] f'e' z2 fe | %190
 z2 FE z2 fe |!ped! [B,B]3 [Bd] [Bd]3[K:bass] [B,D] | [B,D]3 [B,,D,] [B,,D,]2!ped-up! z2 | %193
 z2[K:treble] g'f'"^cresc." z2 gf | z2 GF z2 gf |!ped! [Ee]3 [eg] [eg]3[K:bass] [EG] | %196
 [EG]3 [E,E] [E,E]2 z2!ped-up! |!ped! z2"^sempre" z[K:treble] [Dd] [Dd]3[K:bass] [D,D] | %198
 [D,D]3 [D,,D,] [D,,D,]2 z2!ped-up! || %199
[K:C]!ped! z2 z[K:treble] [D=F^GBd] [DFGBd]3[K:bass] [D,F,^G,B,D] | %200
 [D,F,^G,B,D]3 [D,,F,,^G,,B,,D,] [D,,F,,G,,B,,D,]2 z2!ped-up! | %201
!ped! z2 z[K:treble] [D=G_Be] [DGBe]3[K:bass] [D,G,_B,E] | %202
 [D,G,_B,E]3 [D,,G,,_B,,E,] [D,,G,,B,,E,]2!ped-up!!ped! z2 | %203
 z2 z[K:treble] [D^FAd] [DFAd]3[K:bass] [D,D]!ped-up! |"^dimin." [D,D]3 [D,,D,] [D,,D,]3 D, | %205
 D,,3 D D,3 D | D,3 D D,3[K:treble] B ||[K:D]!ped! (3B,2 B2 ^A2!ped-up!!ped! (3B2 F2 B2!ped-up! | %208
!ped! (3G2 B2 G2!ped-up!!ped! (3B2 E2 B2!ped-up! | %209
!ped! (3^D2 B2 D2!ped-up!!ped! (3B2 B,2 B2!ped-up! | %210
!ped! (3B,2 E2 B,2!ped-up!!ped! (3G2 E2 G2!ped-up! | %211
!ped! (3F2 B2 F2!ped-up!!ped! (3B2 F2 B2!ped-up! | %212
!ped! (3F2 ^A2 F2!ped-up!!ped! (3A2 F2 A2!ped-up! | %213
!ped! (3F2 B2 F2!ped-up!!ped! (3B2 F2 B2!ped-up! |!ped! (3^A2 c2 A2!ped! (3c2!ped-up! A2 c2 | %215
 (3F2 B2 F2 (3B2 F2 B2 | (3F2 ^A2 F2 (3A2 F2 A2 | (3F2 B2 F2 (3B2 F2 B2 | %218
 (3^A2 c2 A2 c2 z[K:bass]!f! F,,, | ^A,,,3 A,,, A,,,2 B,,,A,,, ||[K:B] A,,,2 F,,,2 z4 | %221
 A,2 F,2 z4 | z4 z2 z!f! F,,, | x2 z F,, E,3!p! E, | E,2 x2 x4 | x2 z C, A,3 A, | A,2 z C A3 x | %227
"^crescendo"!<(! C,4 C,3 =G,, | E,4 E,3 =G,, | E,3[K:treble] =G!ped! e3[K:bass] ^G,,!ped-up! | %230
!ped! E,3[K:treble] ^G!ped-up!!ped! e3!ped-up![K:bass] A,, | %231
!ped! E,3[K:treble] A!ped-up!!ped! e3!ped-up![K:bass] A,, | %232
!ped! =F,3[K:treble] A!ped-up!!ped! f3!ped-up!!<)![K:bass]!f!!ped-up!!ped! [_B,,,_B,,] || %233
[K:Bb]!ff! [B,,B,]2 CB, F,2 G,F, | D,2 E,D, B,,2 C,B,, |!ped!{/D,,D,} D2!ped-up! ED B,2 DB, | %236
 F,2 B,F, D,B,,E,C, | B,,2 C,B,, [F,,F,]2 E,D, | C,2 D,C, [G,,G,]2 [F,_A,][E,G,] | %239
 [D,F,]2 [_D,_F,]2 [C,E,]2 [F,,C,]2 | [G,,B,,]2 [=D,,=B,,][E,,C,] !fermata![F,,C,]2 _B,C | %241
 D3 E C3 D | CB,DC A,2[K:treble] CD | E3 F D3 E | DCED B,2 DE | F3 _G E2 EF | _G3 _A F_cBA | %247
"^cresc. poco a poco" _G2 B4 _A2- | A2 _G2 _d2 _c2 | _cBcB B_ABA | _A_Ge_d d2 _c2 | =AB_cB =G_ABA | %252
 F_G_AG GFGA | [B,B]2 [_A,_A]2[K:bass] [E,E]2 [=D,=D]2 | [_D,_D]2 D,2 D,_C,B,,_A,, | %255
 [_G,,,_G,,] [_D,_G,B,][D,G,B,][D,G,B,] z [B,,D,G,][B,,D,G,][B,,D,G,] | %256
 z [_D,_G,B,] z [B,,D,G,] z [D,G,B,] z [_C,=D,F,_A,] | %257
 [_G,,,_G,,] [=D,F,_A,_C][=D,F,A,C][=D,F,A,C] z [_C,D,F,A,][C,D,F,A,][C,D,F,A,] | %258
 z [D,F,_A,_C] z [_C,D,F,A,] z [D,F,A,C] z [_D,_F,=G,B,] | %259
 [_G,,,_G,,] [_F,B,_D][F,B,D][F,B,D] z [_D,F,=G,B,][D,F,=G,B,][D,F,=G,B,] | %260
 z [_F,G,B,_D] z [_D,F,G,B,] z [F,G,B,D] z [__E,_G,_C] | %261
 [_G,,,_G,,] [_G,_C__E][G,CE][G,CE] z [__E,G,C][E,G,C][E,G,C] | %262
 z!<(! [=F,_A,_C=D]"^crescendo" z [=D,F,A,C] z [F,A,CD] z [_F,=G,B,_D] | %263
 z [G,B,_D_F] z [_F,G,B,D] z [G,B,DF] z [_G,_C__E] | %264
 z [_G,C__E] z [G,CE] z [G,CE]!<)! z [_A,C_D=F] | z!f! [_A,_A]z[_G,_G]z!f![_E,_E]z[_D,_D] | %266
 z!f! [_C,_C]z[B,,B,]z!f![_A,,_A,]z[_G,,_G,] | z!f! [E,,E,]z[_D,,_D,]z!f![_C,,_C,]z[B,,,B,,] | %268
 z!f! [_A,,,_A,,] z [_G,,,_G,,] z!f! E,, z D,, | z"^dimin."!ped! F,,z_D,,!ped-up! z _A,,zD,, | %270
 z _D,z_D,, z F,zD,, | z _A,z_D,, z _DzD,, | %272
 z _Dz_D,,!ped-up!!ped! z!pp! !fermata![^F,^C]2!ff! =B,,, || %273
[K:D]!ped! [F,B,D]3 [F,B,D] .[F,B,D]2 .[F,B,D].[F,B,D]!ped-up! | %274
 .[F,B,D]2 .[D,F,B,]2 !fermata!z2 z B,, | D3 B,, D3 B,, | D3 G,, B,3 G,, | B,3 G,, B,3 G,, | %278
 B,3"^crescendo" =C,, _E,3 C,, ||[K:Bb] E,3 C,, E,3 C,, | E,3 F,,, A,,3 F,,, | A,,3 F,, C,,3 F,, | %282
 A,,,3 F,, _G,,,3 F,, |"^dimin." [F,,,F,,]2[K:treble] _gf g2 f=e | f2 _GF G2 F=E | %285
[K:bass] [F,A,C_E]2"^cresc." z F, A,2 z C | F2[K:treble] z A c2 ec | GABG EFGE | CDEC A,B,CA, | %289
[K:bass]"^cresc." [F,B,D]2 z F, B,2 z D | F2[K:treble] z B d2 DB, | BcdB DEFD | B,CDB, defd | %293
 ef"^cresc."ed efge | cdec ABcA |[K:bass] EF_GE CDEC | A,B,CA,[K:treble] cBAc | %297
 de"^cresc."dc defd | BcdB FABF |[K:bass] DEFD B,CDB, |"^cresc." F,A,B,F, E,B,F,E, | %301
 D,2 B,2 G, z EC | A,2 F2 D2 z2 | z2[K:treble] [B,_D=EG]2 [CFA]2 Bc | c2 =d>=e f2 z2 | %305
 B2 [DF]2 [_EG] z ce | f2 [Ac]2 [Bd] z G^F | G2 [GBe]2 [Gc]2 [^FA]2 | %308
 [^FA]2 [DF]2 [GB]2 [=F_A][=EG] | [=EG]2 [CE]2 [F_A]2 [_E_G][DF] | [DF]2 [B,D]2 [E=G]2 [DF][^C=E] | %311
[K:bass] [^C=E]2 [A,C]2 [DF]2 [=C_E][=B,D] | D2 E2 C2 D2 | [C,F,E]8- | [C,F,E]4 [D,F,D]4 | %315
 [C,,F,,E,]8- | [C,,F,,E,]4 [D,,F,,D,]4 | [D,,D,]4 [G,,G,]4 | [=E,,=E,]4 [F,,F,]2 z2 | %319
[K:treble] [CF_e]8- | [CFe]4 [DFd]4 |[K:bass] [C,F,E]8- | [C,F,E]4 [D,F,D]4 | [D,D]4 [G,G]4 | %324
 [=E,=E]4 [F,F]2 [_G,_G]2 |[K:treble]"^cresc." [=G,=G]4 [Cc]4 | [A,A]4 [A,A]2 [_C_c]2 | %327
 [=C=c]4 [_F_f]4 | [=F=f]4 [Ee]4 |[K:bass] [E,,E,]2!ped! [E,,E,]2!ped-up! z4 | %330
 z2[K:treble] [EG]2 [DF]2 [EG][F_A] | [GB]2!ped![K:bass] [E,,E,]2 z4!ped-up! | %332
 z2 [=E,,=E,]2 z2 [C,,C,]2 | z2 !>![F,,F,]2 z2 [G,,G,]2 | %334
!ped! F,,=A,,B,,D,!ped-up!!ped! F,A,!ped-up!B,D |[K:treble]!ped! FABd"^cresc." z2 Bd!ped-up! | %336
 =efgf abc'b | ^c'd'_e'd' f'2!ped-up!!ped! (3FGA | %338
!ped! (3B,2 B2 A2!ped-up!!ped! (3B2 A2 B2!ped-up! | %339
!ped! (3_G2 B2 G2!ped-up!!ped! (3B2 E2 B2!ped-up! | %340
!ped! (3D2 B2 F2!ped-up!!ped! (3B,2 B2 F2!ped-up! | %341
!ped! (3E2 B2 E2!ped-up!!ped! (3_G2 B2 G2!ped-up! | %342
!ped! (3F2 B2 F2!ped-up!!ped! (3=B2 F2 B2!ped-up! | %343
!ped! (3F2 c2 A2[K:bass]!ped-up!!ped! (3F,2 C2 A,2!ped-up! | %344
"^crescendo"!ped! _B,,B,DB,!ped-up!!ped! F,B,_AB,!ped-up! | %345
[K:treble]!ped! =G,B,BG,[K:bass]!ped-up!!ped! E,B,GB,!ped-up! | %346
!ped! D,B,FB,!ped-up!!ped! B,,B,DB,!ped-up! |!ped! E,B,GB,[K:treble]!ped-up!!ped! G,B,BB,!ped-up! | %348
[K:bass]!ped! F,B,A,B,!ped-up!!ped! F,D,C,B,,!ped-up! | %349
!ped! !>!F,,G,,A,,B,,!ped-up!!ped! C,D,E,F,!ped-up! | %350
!ped! B,,,B,,B,,,!ff!B,, B,,,B,,B,,,B,,!ped-up! | B,,,B,,B,,,B,, B,,,B,,=B,,,=B,, | %352
 C,,C,=B,,,=B,, C,,C,E,,E, | =E,,=E,G,,G, F,,F,F,,F, | %354
"^crescendo"!ped! !>!F,,F,B,,B,!ped-up!!ped! !>!F,,F,!ped-up!F,F | %355
!ped! !>!F,,F,B,,B,!ped-up!!ped! !>!F,,F,F,F!ped-up! | %356
!ped! B,,B,!>!F,,F,!ped-up!!ped! A,,A,C,C!ped-up! | %357
!ped! B,,B,!>!F,,F,!ped-up!!ped! A,,,A,,C,,C,!ped-up! | %358
!ped! B,,,B,,!>!F,,,!>!F,,!ped-up!!ped! =B,,,=B,,D,,D,!ped-up! | %359
!ped! C,,C,B,,,G,,!ped-up!!ped! =B,,,=B,,D,,D,!ped-up! | %360
!ped! C,,C,G,,,G,,!ped-up!!ped! C,,C,E,,E,!ped-up! | %361
!ped! D,,D,A,,,A,,!ped-up!!ped! ^C,,^C,=E,,=E,!ped-up! | %362
!ped! D,,D,A,,,A,,!ped-up!!ped! D,,D,!>!F,,F,!ped-up! | %363
!ped! _E,,_E,B,,,B,,!ped-up!!ped! D,,D,!>!F,,F,!ped-up! | %364
!ped! E,,E,B,,,B,,!ped-up!!ped! E,,E,_G,,_G,!ped-up! | %365
!ped! !>!F,,F,C,,C,!ped-up!!ped! E,,E,_G,,_G,!ped-up! | %366
!ped! _D,,_D,A,,,A,,!ped-up!!ped! C,,C,E,,E,!ped-up! | %367
!ped! _G,,,_G,,F,,,F,,!ped-up!!ped! A,,,A,,E,,E,!ped-up! | %368
!ped! [B,,,B,,]4!ped-up!!ped! [_A,,_A,]4!ped-up! |!ped! [_G,,_G,]4!ped-up!!ped! [E,,E,]4!ped-up! | %370
!ped! [D,,D,]4!ped-up!!ped! [B,,,B,,]4!ped-up! |!ped! [E,,E,]4 [_G,B,]2 TB,2-!ped-up! | %372
!pp!!ped! TB,8!ped-up! |!ped! TB,8!ped-up! |"^cresc."!ped! TB,8!ped-up! |!ped! TB,8!ped-up! | %376
"^dimin."!ped! TB,8!ped-up! |!ped! TB,8!ped-up! |!p!!ped! !fermata![F,B,D]8!ped-up! | %379
 z2[K:treble] B=A GFGA | Bcde fgab |[K:bass] z F,,G,,A,, B,,C,D,E, | F,G,A,B, CDED | %383
!ped! [B,D]3 [B,D] [B,D]2 z [=B,,,=B,,]!ped-up! |!ped! [C,,C,]3 [C,,C,] [C,,C,]2!ped-up! z [=B,D] | %385
!ped! [CE]3 [CE] [CE]2!ped-up! z [^C,,^C,] |!ped! [D,,D,]3 [D,,D,] [D,,D,]2!ped-up! z [^C=E] | %387
!ped! [DF]3 [DF] [DF]2!ped-up! z [D,,D,] |!ped! [_E,,_E,]3 [E,,E,] [E,,E,]2!ped-up! z z | %389
 z4 z2 z [E,,E,] |!ped! !>![F,,,F,,]3 !>![F,,,F,,] !>![F,,,F,,]2!ped-up! z2 | z4 z2!p! _G,,,F,,, | %392
 _G,,,F,,,G,,,F,,, A,,,B,,,A,,,B,,, | _G,,,F,,,G,,,F,,, _G,,F,,G,,F,, | %394
 _G,,,F,,,G,,,F,,, A,,,B,,,A,,,B,,, | _G,,,F,,,G,,,F,,, _G,,F,,G,,F,, | %396
 _G,,,F,,,G,,,F,,, _G,,F,,G,,F,, | _G,,,F,,,G,,,F,,, _G,,F,,G,,F,, | %398
 _G,,,F,,,G,,,F,,, _G,,F,,G,,F,, | _G,F,G,F, G,F,G,F, | z2 _G,,,F,,, _G,,F,,G,,F,, | %401
 _G,,,F,,,G,,,F,,, _G,,F,,G,,F,, | _G,,,F,,,G,,,F,,, _G,,F,,G,,F,, | _G,,F,,G,,F,, G,,F,,G,,F,, | %404
 A,,B,,A,,"^sempre dimin."B,, A,,B,,A,,B,, | _G,,F,,G,,F,, G,,F,,G,,F,, | %406
 A,,,B,,,A,,,B,,, A,,,B,,,A,,,B,,, | _G,,,F,,,G,,,F,,, G,,,F,,,[B,,,F,,]F,,, | %408
 [B,,,F,,]F,,,[B,,,F,,]F,,, [B,,,F,,]F,,,[B,,,F,,]F,,, | %409
!ped! F,,B,,,F,,B,,, F,,B,,,!ped-up!F,,B,,, | [F,,B,,]B,,,[F,,B,,]B,,, [B,,D,F,B,]2 z2 | %411
 !fermata![B,,,B,,]8 |] %412
V:3
 x | x8 | x8 | x8 | x8 | z2 G2 A2 _A2 | G2 =A2 B2 G2 | F2 B2 G2 A2 | [FB]2 [Gc]2 A2 z2 | %9
 z2 g2 a2 _a2 | g2 =a2 b2 g2 | f2 b2 g2 a2 | f2 b4 [fa]2 | [fb]2 b2 g2 a2 | f2 b4 [fa]2 | %15
 [fb]2 [b=e']2 _e'2 [c'e']2 | [bd']2 [be']2 x4 | x8 | x8 | x8 | x8 | x8 | x8 | x8 | x8 | x8 | %26
!8va(! x8 | x4!8va)! x4 | x8 | x8 | x8 | x8 | x8 | x8 | x8 | x8 | x8 | x8 | x8 | x8 | x8 | x8 | %42
 x8 | x8 | x2!8va(! x6 ||[K:G] x2!8va)! x6 | x8 |!8va(! x8 | x8!8va)! | x8 | x8 |!8va(! x8 | %52
 x4!8va)! x4 | x8 | x8 | x8 | x8 | x8 | x8 | x2!8va(! x6 | x4!8va)! x4 | x8 | x8 | x8 | x8 | x8 | %66
 x8 | z2 g3 x ce | z2 d3 x x2 | x8 | f2 ag .g2 [g-_b]2 | g2 g=f .f2 [f-_a]2 | f2 =fe .e2 [e-g]2 | %73
 e2 e^d .=d2 [d=f]2 | d2 ^c2 =c2 B2 | x8 | x4 _ED G2 | x8 | x4 _ED G2 | z Bdc B^deB | %80
 _B^deB A^c=dd' |!8va(! x8!8va)! | x4 _ed g2 |!8va(! x8!8va)! | x4 _ed !>!g2 | z Bdc B^deB | %86
 _B^deB A=dG=c | z eg=f e^gae | _e^gae d=gc=f | z ac'_b _a=fag | _a^c'd'a g=b=c'g | x8 | x8 | x8 | %94
 x8 | x8 | x8 | x8 | x8 |!8va(! x6!8va)! x2 | x8 | g4 g4 | d'4 b4 | g4 g4 | g8 | f4 z2 d2 | Tg8 | %107
 Tg8 | Tg8 | Tg8 | Tg8 | z2 d2 z4 |!8va(! x8 | x8 | x6!8va)! x2 | x8 | x8 | x8 | x8 | x8 |1 x8 | %121
 x8 | x8 | x8 | x8 | x8 :|2!8va(! x8 || x8 | x8 | x8!8va)! | x8 | x8 | x8 | x8 | x8 | x8 || %136
[K:Eb] x8 | x8 | x8 | x8 | x8 | x7[K:bass] x | x8 | x8 | x8 | x8 | x8 | x8 | x8 | x8 | x8 | x8 | %152
 x7[K:treble] x | x8 | E3 E E2 FE | E2[I:staff +1] C2[I:staff -1] C4 | F2 FE D2 DC | x8 | %158
 G2 GF E2 ED | x6 GF | E2 FG C2 CB, | C2 D2 _E2 D[DF] | G3 G G2 AG | G2 E2 E4- | E2 cB A2 AG | %165
 F2 z2 (F4 | d2) dc B2 BA | G2 z2 (G4 | G2)[I:staff +1] G,[I:staff -1]_D C2 CB, | A,2 F_E =D2 DC | %170
 B,2 z2 z4 | z2 C2 F4 | F2 GF E2 D2 | x8 | x8 | x8 | x8 | x8 | x8 | x8 | x8 | x8 | x2 c2 =B2 x2 | %183
 x8 | x6 [g=b]2 | [=bd']2 x2 [=Bd]2 x2 | [=B,D]2 x2 [=Bd]2 x2 | x8 | x6 [gc']2 | %189
 [c'e']2 x2 [ce]2 x2 | [CE]2 x2 [ce]2 x2 | x8 | z2 z f b2 [bd']2 | [d'f']2 x2 [df]2 x2 | %194
 [DF]2 x2 [df]2 x2 | x8 | z2 z!ff! g c'2 x2 | x8 | z2 z =a d'3 x ||[K:C]!8va(! x8 | x8 | x8 | x8 | %203
 x7!8va)! x | x8 | x8 | x8 ||[K:D] ^d'4 ^d4 | e8 | f4 ^d4 | B4 B4 | x8 | x8 | x8 | x8 | x8 | x8 | %217
 ^DED^^C DEF^E | GF^EF =E^DEF | F,2 z2 z2!f! z F, ||[K:B] A,3 A, A,2 B,A, | x4 z2 z C | %222
 E3 E E2 FE | EC x2 x4 | x2 z E c3 c | c2 x2 x4 | x4 x2 x A | x8 | x8 | x8 | x8 | x8 | x8 || %233
[K:Bb] x8 | x8 | x8 | x8 | x6 F2 | x6 B2 | B2 [GB]2 G2 A2 | B2 x2 x4 | z A B2- B_G A2- | AB F4 EF | %243
 =GA B2- B=A B2- | B2 B4 z2 | z _A B4 _GA | Bc _d2- dfg_a | b2 _g4 f2- | f2 _g2- gfg_a | %249
 _af _g2- g=e f2- | f_d _g2- gfg_a | f_g g2 =ef f2 | f_g g2 z2 _d2- | d_g [f_c']2 [gb]2 [fb]2 | %254
 [_gb]2 [gb]2 [f_a]2 [fa]2 | x8 | x8 | x8 | x8 | x8 | x8 |!8va(! x4!8va)! x4 | x8 | x8 | x8 | x8 | %266
 x8 | x8 | x4[K:bass] x4 |[K:treble] x8 | x8 | x8 | x8 ||[K:D] x8 | x8 | x8 | x8 | x8 | x8 || %279
[K:Bb] x8 | x8 | x8 | x2!8va(! x6 | x2!8va)! x6 | x8 | x8 | x8 | x8 | x8 | x8 | x8 | x8 | x8 | x8 | %294
 x8 | x8 | x8 | x8 | x8 | x8 | d4 _g4 | x8 | x8 | x8 | x6 Bc | d2 B3 z eg | a2 f3 z x2 | x8 | %308
 d2"^a tempo" c'b .b2 [b-_d']2 | b2 b_a .a2 [a_c']2 | _a2 a=g .g2 [g-b]2 | g2 gf .f2 [f_a]2 | %312
 f2 e2 e2 d2 | x8 | x4 !>!_GF !>!B2 | x8 | x4 !>!_GF !>!B2 | z dfe d^fgd | _d^fgd c=e=f!p!f' | %319
!8va(! x8!8va)! | x4 !>!_gf !>!b2 | x8 | x4 !>!_GF !>!B2 | z dfe d^fgd | _d^fgd c=fB_e | %325
 z gb_a g=bc'g | _g=bc'g f_be_a | z c'e'_d' d'_c'bc' | _c'=e'f'c' b=d'_e'b | g2 x2 x4 | x8 | x8 | %332
 x8 | x8 | x8 | x8 | x4!8va(! x4 | x6!8va)! x2 | d8 | e4 _g4 | z4 [df]4 | _g4 e4 | x8 | x8 | Tb8 | %345
 Tb8 | Tb8 | Tb8 | Tb8 | Ta8 | x2!8va(! x6 | x8 | x8 | x8 | x8 | x8 | x8 | x4!8va)! x4 | x8 | x8 | %360
 x8 | x8 | x8 | x8 | x8 | x8 | x8 | x8 | _cBcB cBcB | _cBcB cBcB | _cBcB cBcB | _cBcB cB!pp! TB2 | %372
 x8 | x8 | x8 | x8 | x8 | x8 | x8 | x8 | x8 | x8 | x8 | x8 | x8 | x8 | x8 | x8 | x8 | x8 | x8 | %391
 x8 | x8 | x8 | x8 | x8 | x8 | x8 | x8 | x8 | x8 | x8 | x4[K:bass] x4 |[K:treble] x8 | x8 | x8 | %406
 x8 | x3[K:bass] x5 | x8 | x8 | x4[K:treble] x4 | x8 |] %412
V:4
 x | x8 | x8 | x8 | x8 | x8 | x8 | x8 | x8 | x2[K:treble] x6 | x8 | x6[K:bass] x2 | x8 | x8 | x8 | %15
 x8 | x8 | x8 | x8 | x8 | x8 | x8 | x8 | x8 | x[K:treble] x7 | x8 | x8 | x5[K:bass] x3 | x8 | x8 | %30
 x8 | x8 | x8 | x8 | x8 | x8 | x8 | x8 | x8 | x8 | x8 | x8 | x8 | x8 | x8 ||[K:G] x2[K:treble] x6 | %46
 x8 | x2[K:bass] x6 | x3[K:treble] x5 | x8 | x8 | x3[K:bass] x5 | x3[K:treble] x5 | x8 | x8 | x8 | %56
 x8 |[K:bass] x8 | x4[K:treble] x4 | x8 | x8 |[K:bass] x8 | x8 | x2 G,,2 C, x z2 | %64
 x6[K:treble] x2 | G,2 G,2 A,2 A,2 | D6 x2 | x8 | x8 | x4 GA x2 | x8 | x8 |[K:bass] x8 | x8 | %74
 ^G,2 A,=G, ^F,2 G,B,, | x8 | x8 | x8 | x8 | x8 | x8 |[K:treble] x8 | x8 |[K:bass] x8 | %84
 x6[K:treble] x2 | x8 | x8 | x8 | x8 | x8 | x8 | x2[K:bass] x6 | x8 | x8 | x8 | x8 | x8 | %97
[K:treble] x8 | x8 | x8 | x8 | x8 | x8 | x8 | x8 | x4[K:bass] x4 | x8 | x8 | x8 | x8 | x8 | x8 | %112
 x8 | x8 | x8 | x8 | x8 | x8 | x8 | x8 |1 x8 | x8 | x8 | x8 | x8 | x8 :|2 x8 || x8 | x8 | x8 | %130
[K:treble] x8 | x8 | x8 | x8 | x8 | x6[K:bass] x2 ||[K:Eb] x8 | x8 | x8 | x8 | x8 | x8 | x8 | x8 | %144
 x8 | x8 | x8 | x8 | x8 | x8 | x8 | x8 | x6 C,2 | B,,2 B,,C, D,2 E,F, | x8 | x8 | x8 | %157
 D,2 D,E, F,2 G,A, | x8 | E,2 E,F, G,2 =A,=B, | x8 | x8 | x8 | E,,2 C,,2 (C,,4 | %164
 A,,2) A,,G,, F,,2 F,,E,, | D,,2 z2 (D,,4 | B,,2) B,,A,, G,,2 G,,F,, | =E,,2 z2 (E,,4 | %168
 C,2) C,B,, A,,2 G,,2 | F,,6 ^F,,2 | G,,6 G,,2 | _A,,6 =A,,2 | B,,2 =B,,2 C,2 D,2 | x8 | x8 | x8 | %176
 x8 | x8 | x8 | x8 | x8 | x8 | x8 | x3[K:treble] x4[K:bass] x | x8 | x2[K:treble] x6 | x8 | %187
 x7[K:bass] x | x8 | x2[K:treble] x6 | x8 | x7[K:bass] x | x8 | x2[K:treble] x6 | x8 | %195
 x7[K:bass] x | x8 | x3[K:treble] x4[K:bass] x | x8 ||[K:C] x3[K:treble] x4[K:bass] x | x8 | %201
 x3[K:treble] x4[K:bass] x | x8 | x3[K:treble] x4[K:bass] x | x8 | x8 | x7[K:treble] x ||[K:D] x8 | %208
 x8 | x8 | x8 | x8 | x8 | x8 | x8 | x8 | x8 | x8 | x7[K:bass] x | x8 ||[K:B] x8 | x8 | x8 | %223
 E,,3 E,, E,,2 z2 | z4 z2 z C,, | A,,3 A,, A,,2 x2 | z4 z2 z E,, | x8 | x8 | %229
 x3[K:treble] x4[K:bass] x | x3[K:treble] x4[K:bass] x | x3[K:treble] x4[K:bass] x | %232
 x3[K:treble] x4[K:bass] x ||[K:Bb] x8 | x8 | x8 | x8 | x8 | x8 | x8 | z6 F,2 | F,8- | %242
 F,4- F,2[K:treble] B,2 | B,8- | B,2 B,2 B,2 B,2 | B,4 E2 _D2 | _D8 | _D8 | _D8 | _D8 | _D8 | %251
 _D4 D4 | _D4 D2 _C2 | x4[K:bass] x4 | x8 | x8 | x8 | x8 | x8 | x8 | x8 | x8 | x8 | x8 | x8 | x8 | %266
 x8 | x8 | x8 | x8 | x8 | x8 | x8 ||[K:D] x8 | x8 | x8 | x8 | x8 | x8 ||[K:Bb] x8 | x8 | x8 | x8 | %283
 x2[K:treble] x6 | x8 |[K:bass] x8 | x2[K:treble] x6 | x8 | x8 |[K:bass] x8 | x2[K:treble] x6 | %291
 x8 | x8 | x8 | x8 |[K:bass] x8 | x4[K:treble] x4 | x8 | x8 |[K:bass] x8 | x8 | x2 B,,2 E, x z2 | %302
 z2 F,2 B,2 x2 | x2[K:treble] z4 [CG]2 | F2 F2 F2 GA | x8 | x8 | x8 | x8 | x8 | x8 |[K:bass] x8 | %312
 x8 | x8 | x8 | x8 | x8 | x8 | x8 |[K:treble] x8 | x8 |[K:bass] x8 | x8 | x8 | x8 |[K:treble] x8 | %326
 x8 | x8 | x8 |[K:bass] x8 | x2[K:treble] x6 | x2[K:bass] x6 | x8 | x8 | x8 |[K:treble] x8 | x8 | %337
 x8 | x8 | x8 | x8 | x8 | x8 | x4[K:bass] x4 | x8 |[K:treble] x4[K:bass] x4 | x8 | %347
 x4[K:treble] x4 |[K:bass] x8 | x8 | x8 | x8 | x8 | x8 | x8 | x8 | x8 | x8 | x8 | x8 | x8 | x8 | %362
 x8 | x8 | x8 | x8 | x8 | x8 | x8 | x8 | x8 | x6 =G,2 | F,2 G,2 _A,2 F,2 | G,2 _A,2 G,2 E,2 | %374
 D,2 E,2 F,2 D,2 | E,2 F,2 G,2 _A,2 | G,6 _A,2 | G,6 F,2 | x8 | x2[K:treble] x6 | x8 |[K:bass] x8 | %382
 x8 | x8 | x8 | x8 | x8 | x8 | x8 | x8 | x8 | x8 | x8 | x4 B,,,4 | x8 | x4 B,,,4 | x4 B,,,4 | %397
 x4 B,,,4 | x4 B,,,4 | x8 | z4 _G,,,4 | x4 B,,,4 | x4 B,,,4 | B,,,8 | x8 | B,,,8 | x8 | x8 | x8 | %409
 x8 | x8 | x8 |] %412
V:5
 x | x8 | x8 | x8 | x8 | x8 | x8 | x8 | x8 | x8 | x8 | x8 | x8 | x8 | x8 | x8 | x8 | x8 | x8 | x8 | %20
 x8 | x8 | x8 | x8 | x8 | x8 |!8va(! x8 | x4!8va)! x4 | x8 | x8 | x8 | x8 | x8 | x8 | x8 | x8 | %36
 x8 | x8 | x8 | x8 | x8 | x8 | x8 | x8 | x2!8va(! x6 ||[K:G] x2!8va)! x6 | x8 |!8va(! x8 | %48
 x8!8va)! | x8 | x8 |!8va(! x8 | x4!8va)! x4 | x8 | x8 | x8 | x8 | x8 | x8 | x2!8va(! x6 | %60
 x4!8va)! x4 | x8 | x8 | x8 | x8 | x8 | x8 | x8 | x8 | x8 | x8 | x8 | x8 | x8 | x8 | x8 | x8 | x8 | %78
 x8 | x8 | x8 |!8va(! x8!8va)! | x8 |!8va(! x8!8va)! | x8 | x8 | x8 | x8 | x8 | x8 | x8 | x8 | x8 | %93
 x8 | x8 | x8 | x8 | x8 | x8 |!8va(! x6!8va)! x2 | x8 | x8 | x8 | x8 | x8 | x8 | d2 z2 z4 | x8 | %108
 x8 | x8 | x8 | x8 |!8va(! x8 | x8 | x6!8va)! x2 | x8 | x8 | x8 | x8 | x8 |1 x8 | x8 | x8 | x8 | %124
 x8 | x8 :|2!8va(! x8 || x8 | x8 | x8!8va)! | x8 | x8 | x8 | x8 | x8 | x8 ||[K:Eb] x8 | x8 | x8 | %139
 x8 | x8 | x7[K:bass] x | x8 | x8 | x8 | x8 | x8 | x8 | x8 | x8 | x8 | x8 | x7[K:treble] x | x8 | %154
 x8 | x8 | x8 | x8 | x8 | x8 | x8 | x8 | E2 z2 x4 | x8 | x8 | x8 | x8 | x8 | x8 | x8 | x8 | x8 | %172
 x8 | x8 | x8 | x8 | x8 | x8 | x8 | x8 | x8 | x8 | x8 | x8 | x8 | x8 | x8 | x8 | x8 | x8 | x8 | %191
 x8 | x8 | x8 | x8 | x8 | x8 | x8 | x8 ||[K:C]!8va(! x8 | x8 | x8 | x8 | x7!8va)! x | x8 | x8 | %206
 x8 ||[K:D] x8 | x8 | x8 | x8 | x8 | x8 | x8 | x8 | x8 | x8 | x8 | x8 | x8 ||[K:B] x8 | x8 | x8 | %223
 x8 | x8 | x8 | x8 | x8 | x8 | x8 | x8 | x8 | x8 ||[K:Bb] x8 | x8 | x8 | x8 | x8 | x8 | x8 | x8 | %241
 x8 | x8 | x8 | x8 | x8 | x8 | x8 | x8 | x8 | x8 | x8 | x8 | x8 | x8 | x8 | x8 | x8 | x8 | x8 | %260
 x8 |!8va(! x4!8va)! x4 | x8 | x8 | x8 | x8 | x8 | x8 | x4[K:bass] x4 |[K:treble] x8 | x8 | x8 | %272
 x8 ||[K:D] x8 | x8 | x8 | x8 | x8 | x8 ||[K:Bb] x8 | x8 | x8 | x2!8va(! x6 | x2!8va)! x6 | x8 | %285
 x8 | x8 | x8 | x8 | x8 | x8 | x8 | x8 | x8 | x8 | x8 | x8 | x8 | x8 | x8 | x8 | x8 | x8 | x8 | %304
 x8 | x8 | x8 | x8 | x8 | x8 | x8 | x8 | x8 | x8 | x8 | x8 | x8 | x8 | x8 |!8va(! x8!8va)! | x8 | %321
 x8 | x8 | x8 | x8 | x8 | x8 | x8 | x8 | x8 | x8 | x8 | x8 | x8 | x8 | x8 | x4!8va(! x4 | %337
 x6!8va)! x2 | x8 | x8 | x8 | x8 | x8 | x8 | x8 | x8 | x8 | x8 | x8 | x8 | x2!8va(! x6 | x8 | x8 | %353
 x8 | x8 | x8 | x8 | x4!8va)! x4 | x8 | x8 | x8 | x8 | x8 | x8 | x8 | x8 | x8 | x8 | x8 | x8 | x8 | %371
 x8 | x8 | x8 | x8 | x8 | x8 | x8 | x8 | x8 | x8 | x8 | x8 | x8 | x8 | x8 | x8 | x8 | x8 | x8 | %390
 x8 | x8 | x8 | x8 | x8 | x8 | x8 | x8 | x8 | x8 | x8 | x8 | x4[K:bass] x4 |[K:treble] x8 | x8 | %405
 x8 | x8 | x3[K:bass] x5 | x8 | x8 | x4[K:treble] x4 | x8 |] %412
V:6
 x | x8 | x8 | x8 | x8 | x8 | x8 | x8 | x8 | x8 | x8 | x8 | x8 | x8 | x8 | x8 | x8 | x8 | x8 | x8 | %20
 x8 | x8 | x8 | x8 | x8 | x8 |!8va(! x8 | x4!8va)! x4 | x8 | x8 | x8 | x8 | x8 | x8 | x8 | x8 | %36
 x8 | x8 | x8 | x8 | x8 | x8 | x8 | x8 | x2!8va(! x6 ||[K:G] x2!8va)! x6 | x8 |!8va(! x8 | %48
 x8!8va)! | x8 | x8 |!8va(! x8 | x4!8va)! x4 | x8 | x8 | x8 | x8 | x8 | x8 | x2!8va(! x6 | %60
 x4!8va)! x4 | x8 | x8 | x8 | x8 | x8 | x8 | x8 | x8 | x8 | x8 | x8 | x8 | x8 | x8 | x8 | x8 | x8 | %78
 x8 | x8 | x8 |!8va(! x8!8va)! | x8 |!8va(! x8!8va)! | x8 | x8 | x8 | x8 | x8 | x8 | x8 | x8 | x8 | %93
 x8 | x8 | x8 | x8 | x8 | x8 |!8va(! x6!8va)! x2 | x8 | x8 | x8 | x8 | x8 | x8 | x8 | x8 | x8 | %109
 x8 | x8 | x8 |!8va(! x8 | x8 | x6!8va)! x2 | x8 | x8 | x8 | x8 | x8 |1 x8 | x8 | x8 | x8 | x8 | %125
 x8 :|2!8va(! x8 || x8 | x8 | x8!8va)! | x8 | x8 | x8 | x8 | x8 | x8 ||[K:Eb] x8 | x8 | x8 | x8 | %140
 x8 | x7[K:bass] x | x8 | x8 | x8 | x8 | x8 | x8 | x8 | x8 | x8 | x8 | x7[K:treble] x | x8 | x8 | %155
 x8 | x8 | x8 | x8 | x8 | x8 | x8 | x8 | x8 | x8 | x8 | x8 | x8 | x8 | x8 | x8 | x8 | x8 | x8 | %174
 x8 | x8 | x8 | x8 | x8 | x8 | x8 | x8 | x8 | x8 | x8 | x8 | x8 | x8 | x8 | x8 | x8 | x8 | x8 | %193
 x8 | x8 | x8 | x8 | x8 | x8 ||[K:C]!8va(! x8 | x8 | x8 | x8 | x7!8va)! x | x8 | x8 | x8 || %207
[K:D] x8 | x8 | x8 | x8 | x8 | x8 | x8 | x8 | x8 | x8 | x8 | x8 | x8 ||[K:B] x8 | x8 | x8 | x8 | %224
 x8 | x8 | x8 | x8 | x8 | x8 | x8 | x8 | x8 ||[K:Bb] x8 | x8 | x8 | x8 | x8 | x8 | x8 | x8 | x8 | %242
 x8 | x8 | x8 | x8 | x8 | x8 | x8 | x8 | x8 | x8 | x8 | x8 | x8 | x8 | x8 | x8 | x8 | x8 | x8 | %261
!8va(! x4!8va)! x4 | x8 | x8 | x8 | x8 | x8 | x8 | x4[K:bass] x4 |[K:treble] x8 | x8 | x8 | x8 || %273
[K:D] x8 | x8 | x8 | x8 | x8 | x8 ||[K:Bb] x8 | x8 | x8 | x2!8va(! x6 | x2!8va)! x6 | x8 | x8 | %286
 x8 | x8 | x8 | x8 | x8 | x8 | x8 | x8 | x8 | x8 | x8 | x8 | x8 | x8 | x8 | x8 | x8 | x8 | x8 | %305
 x8 | x8 | x8 | x8 | x8 | x8 | x8 | x8 | x8 | x8 | x8 | x8 | x8 | x8 |!8va(! x8!8va)! | x8 | x8 | %322
 x8 | x8 | x8 | x8 | x8 | x8 | x8 | x8 | x8 | x8 | x8 | x8 | x8 | x8 | x4!8va(! x4 | x6!8va)! x2 | %338
 x8 | x8 | x8 | x8 | x8 | x8 | x8 | x8 | x8 | x8 | x8 | x8 | x2!8va(! x6 | x8 | x8 | x8 | x8 | x8 | %356
 x8 | x4!8va)! x4 | x8 | x8 | x8 | x8 | x8 | x8 | x8 | x8 | x8 | x8 | x8 | x8 | x8 | x8 | TB8 | %373
 TB8 | TB8 | TB8 | TB8 | TB8 | B8 | x8 | x8 | x8 | x8 | x8 | x8 | x8 | x8 | x8 | x8 | x8 | x8 | %391
 x8 | x8 | x8 | x8 | x8 | x8 | x8 | x8 | x8 | x8 | x8 | x4[K:bass] x4 |[K:treble] x8 | x8 | x8 | %406
 x8 | x3[K:bass] x5 | x8 | x8 | x4[K:treble] x4 | x8 |] %412

